frontend/src/assets/icons/message-smile-circle.svg

<svg width="24" height="24" viewBox="0 0 24 24" fill="none" xmlns="http://www.w3.org/2000/svg">
<g id="message-smile-circle">
<path id="Icon" d="M8.99962 14C8.99962 14 10.3121 15.5 12.4996 15.5C14.6871 15.5 15.9996 14 15.9996 14M15.2496 9H15.2596M9.74962 9H9.75962M12.4996 20C17.194 20 20.9996 16.1944 20.9996 11.5C20.9996 6.80558 17.194 3 12.4996 3C7.8052 3 3.99962 6.80558 3.99962 11.5C3.99962 12.45 4.15547 13.3636 4.443 14.2166C4.55119 14.5376 4.60529 14.6981 4.61505 14.8214C4.62469 14.9432 4.6174 15.0286 4.58728 15.1469C4.55677 15.2668 4.48942 15.3915 4.35472 15.6408L2.71906 18.6684C2.48575 19.1002 2.36909 19.3161 2.3952 19.4828C2.41794 19.6279 2.50337 19.7557 2.6288 19.8322C2.7728 19.9201 3.01692 19.8948 3.50517 19.8444L8.62619 19.315C8.78127 19.299 8.85881 19.291 8.92949 19.2937C8.999 19.2963 9.04807 19.3029 9.11586 19.3185C9.18478 19.3344 9.27145 19.3678 9.44478 19.4345C10.3928 19.7998 11.4228 20 12.4996 20ZM15.7496 9C15.7496 9.27614 15.5258 9.5 15.2496 9.5C14.9735 9.5 14.7496 9.27614 14.7496 9C14.7496 8.72386 14.9735 8.5 15.2496 8.5C15.5258 8.5 15.7496 8.72386 15.7496 9ZM10.2496 9C10.2496 9.27614 10.0258 9.5 9.74962 9.5C9.47348 9.5 9.24962 9.27614 9.24962 9C9.24962 8.72386 9.47348 8.5 9.74962 8.5C10.0258 8.5 10.2496 8.72386 10.2496 9Z" stroke="black" stroke-width="2" stroke-linecap="round" stroke-linejoin="round"/>
</g>
</svg>

<svg xmlns="http://www.w3.org/2000/svg" width="24" height="24" fill="none" viewBox="0 0 24 24">
  <path stroke="#000" stroke-linecap="round" stroke-linejoin="round" stroke-width="2" d="M9 14s1.312 1.5 3.5 1.5c2.187 0 3.5-1.5 3.5-1.5m-.75-5h.01M9.75 9h.01m2.74 11a8.5 8.5 0 1 0-8.057-5.783c.108.32.162.481.172.604a.899.899 0 0 1-.028.326c-.03.12-.098.245-.232.494l-1.636 3.027c-.233.432-.35.648-.324.815a.5.5 0 0 0 .234.35c.144.087.388.062.876.011l5.121-.529c.155-.016.233-.024.303-.021.07.002.12.009.187.024.069.016.155.05.329.116A8.478 8.478 0 0 0 12.5 20Zm3.25-11a.5.5 0 1 1-1 0 .5.5 0 0 1 1 0Zm-5.5 0a.5.5 0 1 1-1 0 .5.5 0 0 1 1 0Z"/>
</svg>
